X: 11541
T: Eddie Tighe's
R: reel
M: 4/4
K: Gmajor
BDGB A2 BA|GBgf (e/f/g/) dc|Bdgd bdgd|a2 ag fdcA|
G2 BG ABcA|Bdag fdef|g2 dcBG G2|1 FDBA G4:|2 FDBA G2 ga||
bg ~g2 dg ~g2|abag fdga|bg ~g2 dg ~g2|fdef g2 ab|
bg ~g2 dgBd|cBAG FAdf|g2 dcBG ~G2|1 FDBA G2 ga:|2 FDBA G4||

